X: 709
P: Longways for as many as will
M: 3/8
L: 1/16
K: Bb
V: 1
|:\
geeccA | fddBBG | eccAAF | fcgcac |\
(fg)=e4 | f4z2 |
fcgcac | (fg)=e4 | f6 :|\
|:\
cFAcfe | dfBdGB | EGcBAG | ^F4d2 |\
gddBBG | eccedc |
(Bc)A4 | G6 | BddggB | AccffA | (GB)BeeB |\
V: 2 clef=bass middle=d
|:\
b4z2 | a4z2 | b4z2 | a4b2 | e2f4 | d2B2z2 |\
d2e2z2 | f2e4 | f6 :|\
|: f4z2 | B4z2 | e2cde2 | d4^f2 | g2b2g2 | ^f2d2g2 |
c2d2D2 | G4z2 |\

